X:125
T:Slack’s Fancy. RH.125
R:Reel
S:Rev.R.Harrison’s MS,c1815,Cumbria
O:England
A:Temple Sowerby,Cumbria
Z:vmp.Simon Wilson. Review PJH, 2008.
M:C|
L:1/8
Q:1/2=120
K:F
fcAc fcAc|fgef gece|\
fgaf bagf|efge f2F2||!
c2cA c2cA|dcBA BGGA|\
B2BG B2BG|cBAG AFFA|]

